X:70
T: Ich kann des Abends nit schlafen gehn (Band 1), S. 201
N: P0845
O: Lothringen
S: PINCK, Louis: Verklingende Weisen, Bd 1, Metz 1928]
R: Fenstergang, Liebe]
M: 2/4
L: 1/16
K: E
E2 | B3ABB=c2 | A3=GA2
BA | =G2FF2GAG | F3EF2=G2 | E3DE2
E2 | B3ABB=c2 | A3=GA2
BA | =G2GGGABG | F3EF2=G2 | E3DE2

